icons/Percent-2 1.svg

<svg width="24" height="24" viewBox="0 0 24 24" fill="none" xmlns="http://www.w3.org/2000/svg">
<g id="Percent-2 1">
<path id="Vector" d="M20.65 10.94L18.87 9.16V6.63C18.87 6.23218 18.7119 5.85065 18.4306 5.56934C18.1493 5.28804 17.7678 5.13 17.37 5.13H14.84L13.06 3.35C12.9214 3.20971 12.7563 3.09833 12.5744 3.02231C12.3924 2.94629 12.1972 2.90714 12 2.90714C11.8028 2.90714 11.6075 2.94629 11.4256 3.02231C11.2436 3.09833 11.0786 3.20971 10.94 3.35L9.15997 5.13H6.62997C6.23214 5.13 5.85061 5.28804 5.56931 5.56934C5.288 5.85065 5.12997 6.23218 5.12997 6.63V9.16L3.34997 10.94C3.20968 11.0786 3.09829 11.2436 3.02227 11.4256C2.94625 11.6076 2.9071 11.8028 2.9071 12C2.9071 12.1972 2.94625 12.3924 3.02227 12.5744C3.09829 12.7564 3.20968 12.9214 3.34997 13.06L5.12997 14.84V17.37C5.12997 17.7678 5.288 18.1494 5.56931 18.4307C5.85061 18.712 6.23214 18.87 6.62997 18.87H9.15997L10.94 20.65C11.0786 20.7903 11.2436 20.9017 11.4256 20.9777C11.6075 21.0537 11.8028 21.0929 12 21.0929C12.1972 21.0929 12.3924 21.0537 12.5744 20.9777C12.7563 20.9017 12.9214 20.7903 13.06 20.65L14.84 18.87H17.37C17.7678 18.87 18.1493 18.712 18.4306 18.4307C18.7119 18.1494 18.87 17.7678 18.87 17.37V14.84L20.65 13.06C20.7903 12.9214 20.9016 12.7564 20.9777 12.5744C21.0537 12.3924 21.0928 12.1972 21.0928 12C21.0928 11.8028 21.0537 11.6076 20.9777 11.4256C20.9016 11.2436 20.7903 11.0786 20.65 10.94Z" stroke="#00153F" stroke-width="1.5" stroke-linejoin="round"/>
<path id="Vector_2" d="M10 15.62L14.4 8" stroke="#00153F" stroke-width="1.5" stroke-linecap="round" stroke-linejoin="round"/>
<path id="Vector_3" d="M14.2 15.31V15.311" stroke="#00153F" stroke-width="2" stroke-linecap="round" stroke-linejoin="round"/>
<path id="Vector_4" d="M10.2 8.31V8.311" stroke="#00153F" stroke-width="2" stroke-linecap="round" stroke-linejoin="round"/>
</g>
</svg>

<svg xmlns="http://www.w3.org/2000/svg" fill="none" viewBox="0 0 24 24"><g stroke="currentColor" stroke-linejoin="round"><path stroke-width="1.5" d="m20.65 10.94-1.78-1.78V6.63a1.5 1.5 0 0 0-1.5-1.5h-2.53l-1.78-1.78a1.49 1.49 0 0 0-2.12 0L9.16 5.13H6.63a1.5 1.5 0 0 0-1.5 1.5v2.53l-1.78 1.78a1.49 1.49 0 0 0 0 2.12l1.78 1.78v2.53a1.5 1.5 0 0 0 1.5 1.5h2.53l1.78 1.78a1.49 1.49 0 0 0 2.12 0l1.78-1.78h2.53a1.5 1.5 0 0 0 1.5-1.5v-2.53l1.78-1.78a1.49 1.49 0 0 0 0-2.12Z"/><path stroke-linecap="round" stroke-width="1.5" d="M10 15.62 14.4 8"/><path stroke-linecap="round" stroke-width="2" d="M14.2 15.31v.001m-4-7.001v.001"/></g></svg>
